icons/src/scalable/default/devices/drive-harddisk-symbolic.svg

<svg xmlns="http://www.w3.org/2000/svg" viewBox="0 0 16 16">
  <defs id="defs3051">
    <style type="text/css" id="current-color-scheme">
      .ColorScheme-Text {
        color:#4d4d4d;
      }
      </style>
  </defs>
 <path 
     style="fill:#bebebe;fill-opacity:1;stroke:none" 
     class="ColorScheme-Text"
     d="M 2.953125 0.5 C 2.6041342 0.5 2.2699282 0.63757868 2.0449219 0.87304688 C 1.8199156 1.1085151 1.7058541 1.4160686 1.6738281 1.7363281 L 1.6738281 1.7246094 L 0.38867188 11.861328 A 0.47594416 0.47594416 0 0 0 0.38671875 11.921875 L 0.38476562 11.921875 L 0.38671875 11.945312 A 0.47594416 0.47594416 0 0 0 0.39257812 12.003906 L 0.62109375 14.736328 C 0.66868341 15.127381 0.95379093 15.441406 1.4296875 15.441406 L 14.617188 15.441406 C 15.093084 15.441406 15.378192 15.127381 15.425781 14.736328 L 15.613281 11.939453 L 15.615234 11.921875 L 15.613281 11.921875 A 0.47594416 0.47594416 0 0 0 15.611328 11.861328 L 14.326172 1.7246094 A 0.47594416 0.47594416 0 0 0 14.320312 1.6914062 C 14.262055 1.4001181 14.157113 1.1147632 13.943359 0.88085938 C 13.729606 0.64695564 13.395866 0.5 13.046875 0.5 L 2.953125 0.5 z M 2.953125 1.4511719 L 13.046875 1.4511719 C 13.17378 1.4511719 13.195001 1.4718034 13.242188 1.5234375 C 13.288759 1.5743985 13.3477 1.6925336 13.384766 1.8730469 L 14.646484 11.818359 L 14.583984 11.921875 L 11.332031 11.921875 L 10.855469 11.921875 L 1.3476562 11.921875 L 1.34375 11.904297 L 2.6191406 1.8457031 A 0.47594416 0.47594416 0 0 0 2.6210938 1.8320312 C 2.6366557 1.6763943 2.6865299 1.5813197 2.734375 1.53125 C 2.7822201 1.4811803 2.8262192 1.4511719 2.953125 1.4511719 z M 8.0507812 2.8242188 C 5.7143413 2.8242188 3.7929688 3.9338462 3.7929688 5.2851562 C 3.7929688 6.6364663 5.7143412 7.7480469 8.0507812 7.7480469 C 10.387231 7.7480469 12.306641 6.6364663 12.306641 5.2851562 C 12.306641 3.9338462 10.387231 2.8242188 8.0507812 2.8242188 z M 8.0507812 4.5820312 C 8.7188612 4.5820312 9.265625 4.8987662 9.265625 5.2851562 C 9.265625 5.6715363 8.7188612 5.9882812 8.0507812 5.9882812 C 7.3827212 5.9882812 6.8339844 5.6715363 6.8339844 5.2851562 C 6.8339844 4.8987662 7.3827212 4.5820312 8.0507812 4.5820312 z "
     />
</svg>

<svg version="1.1" viewBox="0 0 16 16" xmlns="http://www.w3.org/2000/svg">
 <path d="m2.9531 0.5c-0.34899 0-0.6832 0.13758-0.9082 0.37305-0.22501 0.23547-0.33907 0.54302-0.37109 0.86328v-0.011719l-1.2852 10.137a0.47594 0.47594 0 0 0-0.0019531 0.060547h-0.0019531l0.0019531 0.023437a0.47594 0.47594 0 0 0 0.0058594 0.058594l0.22852 2.7324c0.04759 0.39105 0.3327 0.70508 0.80859 0.70508h13.188c0.4759 0 0.761-0.31402 0.80859-0.70508l0.1875-2.7969 0.001953-0.017578h-0.001953a0.47594 0.47594 0 0 0-0.001953-0.060547l-1.2852-10.137a0.47594 0.47594 0 0 0-0.00586-0.033203c-0.058257-0.29129-0.1632-0.57664-0.37695-0.81055-0.21375-0.2339-0.54749-0.38086-0.89648-0.38086h-10.094zm0 0.95117h10.094c0.1269 0 0.14813 0.020632 0.19531 0.072266 0.046571 0.050961 0.10551 0.1691 0.14258 0.34961l1.2617 9.9453-0.0625 0.10352h-3.252-0.47656-9.5078l-0.0039062-0.017578 1.2754-10.059a0.47594 0.47594 0 0 0 0.0019532-0.013672c0.015562-0.15564 0.065436-0.25071 0.11328-0.30078s0.091844-0.080078 0.21875-0.080078zm5.0977 1.373c-2.3364 0-4.2578 1.1096-4.2578 2.4609 0 1.3513 1.9214 2.4629 4.2578 2.4629 2.3364 0 4.2559-1.1116 4.2559-2.4629 0-1.3513-1.9194-2.4609-4.2559-2.4609zm0 1.7578c0.66808 0 1.2148 0.31674 1.2148 0.70312 0 0.38638-0.54676 0.70312-1.2148 0.70312-0.66806 0-1.2168-0.31674-1.2168-0.70312 0-0.38639 0.54874-0.70312 1.2168-0.70312z" fill="#bebebe"/>
</svg>
